groups/groups.svg

<svg xmlns="http://www.w3.org/2000/svg" viewBox="0 0 16 16"><defs><style>.cls-1{fill-rule:evenodd}</style></defs><title>groups</title><g id="Layer_1" data-name="Layer 1"><path class="cls-1" d="M13.155 9.137V6.824a3.332 3.332 0 1 0-3.942-3.91H6.74a3.331 3.331 0 1 0-3.818 3.924v2.316A3.326 3.326 0 1 0 6.745 13h2.463a3.329 3.329 0 1 0 3.947-3.863zm-.712-7.568a1.962 1.962 0 1 1-1.962 1.962 1.962 1.962 0 0 1 1.962-1.962zM1.481 3.531a1.962 1.962 0 1 1 1.962 1.962 1.962 1.962 0 0 1-1.962-1.962zm1.962 10.834A1.964 1.964 0 1 1 5.407 12.4a1.964 1.964 0 0 1-1.964 1.965zm5.768-2.6h-2.48a3.331 3.331 0 0 0-2.576-2.6V6.822a3.335 3.335 0 0 0 2.6-2.675H9.2a3.33 3.33 0 0 0 2.721 2.689v2.289a3.33 3.33 0 0 0-2.71 2.642zm3.232 2.6a1.964 1.964 0 1 1 1.964-1.965 1.964 1.964 0 0 1-1.964 1.965z" id="Layer_39" data-name="Layer 39"/></g></svg>

<svg xmlns="http://www.w3.org/2000/svg" viewBox="0 0 16 16"><defs><style>.cls-1{fill-rule:evenodd;}</style></defs><title>groups</title><g id="Layer_1" data-name="Layer 1"><g id="Layer_39" data-name="Layer 39"><path class="cls-1" d="M13.155,9.137V6.824a3.332,3.332,0,1,0-3.942-3.91H6.74A3.331,3.331,0,1,0,2.922,6.838V9.154A3.326,3.326,0,1,0,6.745,13H9.208a3.329,3.329,0,1,0,3.947-3.863Zm-.712-7.568a1.962,1.962,0,1,1-1.962,1.962A1.962,1.962,0,0,1,12.443,1.569ZM1.481,3.531A1.962,1.962,0,1,1,3.443,5.493,1.962,1.962,0,0,1,1.481,3.531ZM3.443,14.365A1.964,1.964,0,1,1,5.407,12.4,1.964,1.964,0,0,1,3.443,14.365Zm5.768-2.6H6.731a3.331,3.331,0,0,0-2.576-2.6V6.822a3.335,3.335,0,0,0,2.6-2.675H9.2a3.33,3.33,0,0,0,2.721,2.689V9.125A3.33,3.33,0,0,0,9.211,11.767Zm3.232,2.6A1.964,1.964,0,1,1,14.407,12.4,1.964,1.964,0,0,1,12.443,14.365Z"/></g></g></svg>
